X: 1144
T: Ellen O'Grady   #2
R: slipjig
%S: s:2 b:9(4+5)
B: O'Neill's 1850 Music of Ireland #1144
Z: Stephen Foy (shf@access.digex.net)
%: abc 1.6
M: 9/8
K: A
"^A"|: eaa ef=g fed |1,3 eaa ef=g f2d :|2,4 =gfg ecA Bcd "^B":: e2e Bcd cBA |
| e2e Bcd c2A |1 e2e Bcd cBA | agf ecA Bcd :|2 efg agf edc | fef B2c d2B |]
